!!!OTL: Songjingshi Zaofan
!!!ARE: Asia, China,ÿShandong Shiping
!! III, 347
!!!SCT: C1768
!!!YEM: Copyright 1995, estate of Helmut Schaffrath.
**kern
*ICvox
*Ivox
*M2/4
*k[f#]
*G:
{4dd
8ee
8dd
=1
8gg
8b
4dd}
=2
{4dd
8ee
8dd
=3
8gg
8b
8a
8g}
=4
{8a
8a
8a
8b
=5
2dd}
=6
{4.ee
8gg
=7
2dd}
=8
{8b
8a
8g
8e
=9
4a
4r}
=10
{8a
8b
4dd
=11
8dd
4dd
8b
=12
4.gg
8b
=13
8b
8a
8b
8a
=14
8e
8g
8e
8g
=15
2a}
=16
{2dd
=17
8e
8g
8e
8g
=18
2a}
=19
{8a
8e
8g
8e
=20
2d}
==
!!!AGN: Xiaodiao, Yangge diao
!!!AMT: simple duple
!!!AIN: vox
!!!EED: Helmut Schaffrath
!!!EEV: 1.0
*-
